_inc/systems/logos/apple2.svg

<svg xmlns="http://www.w3.org/2000/svg" viewBox="0 0 3865.1 1219.9"><path d="M3424.9 396.1h-98V264.5h251.6v582.8h-251.6V715.7h98zm342.2 319.6h98v131.6h-251.6V264.5h251.6v131.6h-98zM943.9 810.2c-52.9-55.7-79.7-119.8-79.7-190.6 0-71.2 25.7-134.6 76.3-188.3a272 272 0 0 1 50.3-42.2c-19.3-25-96.1-114-210.9-114-109.3 0-137.5 65.4-213.3 65.4-83.5 0-111.2-72.4-219.6-72.4 0 0-321.9 9.6-321.9 400.2 0 140.9 123.1 551.6 306.2 551.6 91.6 0 80.6-56.3 200.1-56.3 118.9 0 98.6 47.6 210.5 47.6 115.7 0 266.3-159.8 280.2-341.7-27.9-14.1-54.1-33.9-78.2-59.3" class="st7" style="fill:#fff"/><path d="M1130.7 396.9h284.5v450.5h-153.6V528.5h-84.8c-27.8 0-50.8 8.6-69.1 25.9-18.3 17.2-27.4 39.5-27.4 66.6 0 26.7 9.4 49.2 28.2 67.4s42 27.3 69.8 27.3h48.3v131.6h-94.3c-58 0-109.2-23.4-153.6-70.1C934.2 730.5 912 678 912 619.5c0-58.9 21.1-110.7 63.3-155.5 42.2-44.7 94-67.1 155.4-67.1m332 582.1V396.9h289.6c59 0 109.6 22.3 151.7 66.8 42.2 44.5 63.3 98.7 63.3 162.4 0 61.8-21.2 114.1-63.6 157-42.4 42.8-93.9 64.3-154.3 64.3h-98V715.7h43.9c29.3 0 53.9-8.2 73.9-24.8 20-16.5 30-37.9 30-64.1 0-25.3-9.5-47.6-28.5-67-20.5-20.9-45.6-31.3-75.3-31.3h-79V979zm535.3 0V396.9h289.6c59 0 109.6 22.3 151.7 66.8 42.2 44.5 63.3 98.7 63.3 162.4 0 61.8-21.2 114.1-63.6 157-42.4 42.8-93.9 64.3-154.3 64.3h-98V715.7h43.9c29.3 0 53.9-8.2 73.9-24.8 20-16.5 30-37.9 30-64.1 0-25.3-9.5-47.6-28.5-67-20.5-20.9-45.6-31.3-75.3-31.3h-79V979zm535.3-714.5h153.6v582.8h-153.6zm699.1 451.2v131.6h-259.6c-69.2 0-128-20-176.2-59.9-51.7-42.8-77.5-98.6-77.5-167.2 0-58.4 25.3-110.2 76.1-155.5 50.7-45.3 110.2-67.9 178.4-67.9h258.9v131.3L3130 677.7h-174l108.2-149.2h-79c-29.3 0-52.9 8.5-70.9 25.5s-27.1 38.6-27.1 64.8c0 27.7 9.5 50.8 28.5 69.2 19 18.5 42.2 27.7 69.5 27.7zM742 1211.2c71.9 0 157.2-61.7 214.8-152H140.5c50.6 91.4 115.7 160.7 190.9 160.7 91.6 0 80.6-56.3 200.1-56.3 118.8 0 98.6 47.6 210.5 47.6m-601.5-152h816.4c29.6-46.4 52-100.4 61.4-157.5H72.7c18.1 54 40.9 108.8 67.8 157.5M72.7 901.6h945.5c1.8-10.6 3.1-21.4 3.9-32.2-28-14.1-54.1-33.8-78.3-59.2-19.8-20.9-36-42.9-48.4-66.1H32.6c7.8 46.4 21.4 101.5 40.1 157.5" class="st7" style="fill:#fff"/><path d="M864.2 619.5c0-11.2.7-22.1 2-32.9H30.3c-3.4 25.2-5.2 52.3-5.2 81.7 0 20.3 2.6 46.3 7.5 75.8h862.8c-20.7-38.6-31.2-80.3-31.2-124.6m-782-190.4C57.8 470.2 39 521.8 30.3 586.6h835.8c6.8-57.9 31.6-110.1 74.3-155.4l2.1-2.1z" class="st7" style="fill:#fff"/><path d="M943.9 810.2c-52.9-55.7-79.7-119.8-79.7-190.6 0-71.2 25.7-134.6 76.3-188.3a272 272 0 0 1 50.3-42.2c-19.3-25-96.1-114-210.9-114-109.3 0-137.5 65.4-213.3 65.4-83.5 0-111.2-72.4-219.6-72.4 0 0-321.9 9.6-321.9 400.2 0 140.9 123.1 551.6 306.2 551.6 91.6 0 80.6-56.3 200.1-56.3 118.9 0 98.6 47.6 210.5 47.6 115.7 0 266.3-159.8 280.2-341.7-27.9-14.1-54.1-33.9-78.2-59.3" style="overflow:visible;fill:#fff"/><path d="M717.2 208.6c15.6-15.5 49-127.5 49-208.6-73.6 17.1-142.5 57.5-182.3 112.7-39.7 55.2-62.3 125-48.9 208.6 99.5-8.6 146.2-58.6 182.2-112.7" class="st7" style="fill:#fff"/></svg>

<?xml version="1.0" encoding="utf-8"?>
<svg version="1.1" viewBox="0 0 3865.1 1219.9" xmlns="http://www.w3.org/2000/svg">
  <path class="st7" d="M 3424.9 396.1 L 3326.9 396.1 L 3326.9 264.5 L 3578.5 264.5 L 3578.5 847.3 L 3326.9 847.3 L 3326.9 715.7 L 3424.9 715.7 L 3424.9 396.1 Z" style="fill: rgb(255, 255, 255);"/>
  <path class="st7" d="M 3767.1 715.7 L 3865.1 715.7 L 3865.1 847.3 L 3613.5 847.3 L 3613.5 264.5 L 3865.1 264.5 L 3865.1 396.1 L 3767.1 396.1 L 3767.1 715.7 Z" style="fill: rgb(255, 255, 255);"/>
  <path class="st7" d="M 943.9 810.2 C 891 754.5 864.2 690.4 864.2 619.6 C 864.2 548.4 889.9 485 940.5 431.3 C 956.1 414.7 972.9 400.7 990.8 389.1 C 971.5 364.1 894.7 275.1 779.9 275.1 C 670.6 275.1 642.4 340.5 566.6 340.5 C 483.1 340.5 455.4 268.1 347 268.1 C 347 268.1 25.1 277.7 25.1 668.3 C 25.1 809.2 148.2 1219.9 331.3 1219.9 C 422.9 1219.9 411.9 1163.6 531.4 1163.6 C 650.3 1163.6 630 1211.2 741.9 1211.2 C 857.6 1211.2 1008.2 1051.4 1022.1 869.5 C 994.2 855.4 968 835.6 943.9 810.2 Z" style="fill: rgb(255, 255, 255);"/>
  <path class="st7" d="M 1130.7 396.9 L 1415.2 396.9 L 1415.2 847.4 L 1261.6 847.4 L 1261.6 528.5 L 1176.8 528.5 C 1149 528.5 1126 537.1 1107.7 554.4 C 1089.4 571.6 1080.3 593.9 1080.3 621 C 1080.3 647.7 1089.7 670.2 1108.5 688.4 C 1127.3 706.6 1150.5 715.7 1178.3 715.7 L 1226.6 715.7 L 1226.6 847.3 L 1132.3 847.3 C 1074.3 847.3 1023.1 823.9 978.7 777.2 C 934.2 730.5 912 678 912 619.5 C 912 560.6 933.1 508.8 975.3 464 C 1017.5 419.3 1069.3 396.9 1130.7 396.9 Z" style="fill: rgb(255, 255, 255);"/>
  <path class="st7" d="M 1462.7 979 L 1462.7 396.9 L 1752.3 396.9 C 1811.3 396.9 1861.9 419.2 1904 463.7 C 1946.2 508.2 1967.3 562.4 1967.3 626.1 C 1967.3 687.9 1946.1 740.2 1903.7 783.1 C 1861.3 825.9 1809.8 847.4 1749.4 847.4 L 1651.4 847.4 L 1651.4 715.7 L 1695.3 715.7 C 1724.6 715.7 1749.2 707.5 1769.2 690.9 C 1789.2 674.4 1799.2 653 1799.2 626.8 C 1799.2 601.5 1789.7 579.2 1770.7 559.8 C 1750.2 538.9 1725.1 528.5 1695.4 528.5 L 1616.4 528.5 L 1616.4 979 L 1462.7 979 Z" style="fill: rgb(255, 255, 255);"/>
  <path class="st7" d="M 1998 979 L 1998 396.9 L 2287.6 396.9 C 2346.6 396.9 2397.2 419.2 2439.3 463.7 C 2481.5 508.2 2502.6 562.4 2502.6 626.1 C 2502.6 687.9 2481.4 740.2 2439 783.1 C 2396.6 825.9 2345.1 847.4 2284.7 847.4 L 2186.7 847.4 L 2186.7 715.7 L 2230.6 715.7 C 2259.9 715.7 2284.5 707.5 2304.5 690.9 C 2324.5 674.4 2334.5 653 2334.5 626.8 C 2334.5 601.5 2325 579.2 2306 559.8 C 2285.5 538.9 2260.4 528.5 2230.7 528.5 L 2151.7 528.5 L 2151.7 979 L 1998 979 Z" style="fill: rgb(255, 255, 255);"/>
  <path class="st7" d="M 2533.3 264.5 L 2686.9 264.5 L 2686.9 847.3 L 2533.3 847.3 L 2533.3 264.5 Z" style="fill: rgb(255, 255, 255);"/>
  <path class="st7" d="M 3232.4 715.7 L 3232.4 847.3 L 2972.8 847.3 C 2903.6 847.3 2844.8 827.3 2796.6 787.4 C 2744.9 744.6 2719.1 688.8 2719.1 620.2 C 2719.1 561.8 2744.4 510 2795.2 464.7 C 2845.9 419.4 2905.4 396.8 2973.6 396.8 L 3232.5 396.8 L 3232.5 528.1 L 3130 677.7 L 2956 677.7 L 3064.2 528.5 L 2985.2 528.5 C 2955.9 528.5 2932.3 537 2914.3 554 C 2896.3 571 2887.2 592.6 2887.2 618.8 C 2887.2 646.5 2896.7 669.6 2915.7 688 C 2934.7 706.5 2957.9 715.7 2985.2 715.7 L 3232.4 715.7 Z" style="fill: rgb(255, 255, 255);"/>
  <path class="st7" d="M 742 1211.2 C 813.9 1211.2 899.2 1149.5 956.8 1059.2 L 140.5 1059.2 C 191.1 1150.6 256.2 1219.9 331.4 1219.9 C 423 1219.9 412 1163.6 531.5 1163.6 C 650.3 1163.6 630.1 1211.2 742 1211.2 Z" style="fill: rgb(255, 255, 255);"/>
  <path class="st7" d="M 140.5 1059.2 L 956.9 1059.2 C 986.5 1012.8 1008.9 958.8 1018.3 901.7 L 72.7 901.7 C 90.8 955.7 113.6 1010.5 140.5 1059.2 Z" style="fill: rgb(255, 255, 255);"/>
  <path class="st7" d="M 72.7 901.6 L 1018.2 901.6 C 1020 891 1021.3 880.2 1022.1 869.4 C 994.1 855.3 968 835.6 943.8 810.2 C 924 789.3 907.8 767.3 895.4 744.1 L 32.6 744.1 C 40.4 790.5 54 845.6 72.7 901.6 Z" style="fill: rgb(255, 255, 255);"/>
  <path class="st7" d="M 864.2 619.5 C 864.2 608.3 864.9 597.4 866.2 586.6 L 30.3 586.6 C 26.9 611.8 25.1 638.9 25.1 668.3 C 25.1 688.6 27.7 714.6 32.6 744.1 L 895.4 744.1 C 874.7 705.5 864.2 663.8 864.2 619.5 Z" style="fill: rgb(255, 255, 255);"/>
  <path class="st7" d="M 82.2 429.1 C 57.8 470.2 39 521.8 30.3 586.6 L 866.1 586.6 C 872.9 528.7 897.7 476.5 940.4 431.2 C 941.1 430.5 941.8 429.8 942.5 429.1 L 82.2 429.1 Z" style="fill: rgb(255, 255, 255);"/>
  <defs>
    <path id="SVGID_5_" d="M943.9,810.2c-52.9-55.7-79.7-119.8-79.7-190.6c0-71.2,25.7-134.6,76.3-188.3 c15.6-16.6,32.4-30.6,50.3-42.2c-19.3-25-96.1-114-210.9-114c-109.3,0-137.5,65.4-213.3,65.4c-83.5,0-111.2-72.4-219.6-72.4 c0,0-321.9,9.6-321.9,400.2c0,140.9,123.1,551.6,306.2,551.6c91.6,0,80.6-56.3,200.1-56.3c118.9,0,98.6,47.6,210.5,47.6 c115.7,0,266.3-159.8,280.2-341.7C994.2,855.4,968,835.6,943.9,810.2z"/>
  </defs>
  <path d="M 943.9 810.2 C 891 754.5 864.2 690.4 864.2 619.6 C 864.2 548.4 889.9 485 940.5 431.3 C 956.1 414.7 972.9 400.7 990.8 389.1 C 971.5 364.1 894.7 275.1 779.9 275.1 C 670.6 275.1 642.4 340.5 566.6 340.5 C 483.1 340.5 455.4 268.1 347 268.1 C 347 268.1 25.1 277.7 25.1 668.3 C 25.1 809.2 148.2 1219.9 331.3 1219.9 C 422.9 1219.9 411.9 1163.6 531.4 1163.6 C 650.3 1163.6 630 1211.2 741.9 1211.2 C 857.6 1211.2 1008.2 1051.4 1022.1 869.5 C 994.2 855.4 968 835.6 943.9 810.2 Z" style="overflow: visible; fill: rgb(255, 255, 255);"/>
  <path class="st7" d="M 717.2 208.6 C 732.8 193.1 766.2 81.1 766.2 0 L 766.2 0 C 692.6 17.1 623.7 57.5 583.9 112.7 L 583.9 112.7 C 544.2 167.9 521.6 237.7 535 321.3 L 535 321.3 C 634.5 312.7 681.2 262.7 717.2 208.6 L 717.2 208.6 Z" style="fill: rgb(255, 255, 255);"/>
</svg>
